X:1
T:The Five Carlins
M:3/4
L:1/4
K:G
 z2 D| D3/4 E/4 G G| A3/4 B/4 D3/2 B/2| c3/4 B/4 A3/2 G/2| E2 G| D3/4 E/4 G G|\
 A3/4 B/4 D e| d/4 B3/4 A3/2 G/2| G2 z|
